images/Kit--Equipment.svg

<svg height="512pt" viewBox="0 0 512 512" width="512pt" xmlns="http://www.w3.org/2000/svg"><path d="m199.953125 47.921875c-.367187 0-.730469.027344-1.09375.078125h-36c-19.242187 0-37.847656 6.941406-52.390625 19.546875l-99.703125 86.40625c-3.175781 2.746094-3.6875 7.480469-1.171875 10.84375l72 96c1.296875 1.734375 3.246094 2.871094 5.394531 3.144531 2.152344.273438 4.320313-.335937 6.011719-1.691406l27-21.59375v223.34375c0 4.417969 3.582031 8 8 8h264c4.417969 0 8-3.582031 8-8v-223.34375l27 21.59375c1.691406 1.355469 3.859375 1.964844 6.011719 1.691406 2.148437-.273437 4.097656-1.410156 5.394531-3.144531l72-96c2.515625-3.363281 2.003906-8.097656-1.171875-10.84375l-99.703125-86.40625c-14.542969-12.605469-33.148438-19.546875-52.390625-19.546875h-36.71875c-.675781-.035156-1.351563.019531-2.015625.15625-.015625.003906-.03125.011719-.046875.015625-.226563.046875-.449219.105469-.671875.171875-.03125.011719-.0625.019531-.09375.03125-.738281.230469-1.4375.566406-2.078125 1-.027344.019531-.050781.042969-.078125.0625-.183594.121094-.359375.253906-.53125.390625-9.195312 7.59375-30.589844 14.171875-54.90625 14.171875s-45.710938-6.578125-54.90625-14.171875c-1.4375-1.222656-3.257812-1.894531-5.140625-1.90625zm-37.09375 16.078125h32.515625l21.703125 37.59375c1.367187 2.597656 4.042969 4.238281 6.976563 4.273438 2.933593.039062 5.652343-1.53125 7.085937-4.09375 1.433594-2.558594 1.347656-5.699219-.21875-8.179688l-10.921875-18.921875c11.761719 3.503906 25.386719 5.328125 40 5.328125 14.59375 0 28.199219-1.820312 39.953125-5.3125l-40.03125 69.171875-13-22.53125c-1.34375-2.628906-4.03125-4.304687-6.984375-4.355469-2.957031-.050781-5.699219 1.527344-7.132812 4.113282-1.433594 2.582031-1.332032 5.746093.273437 8.226562l19.90625 34.53125c1.429687 2.476562 4.070313 4 6.929687 4 2.859376 0 5.5-1.523438 6.929688-4l57.765625-99.84375h32.53125c15.394531 0 30.285156 5.554688 41.921875 15.640625l50.421875 43.703125-47.890625 63.859375c-2.648438 3.539063-1.929688 8.554687 1.609375 11.203125s8.554687 1.929688 11.203125-1.609375l47.203125-62.953125 31.515625 27.3125-62.578125 83.4375-33.546875-26.84375c-2.402344-1.921875-5.691406-2.296875-8.464844-.964844-2.773437 1.332032-4.535156 4.136719-4.535156 7.214844v232h-248v-232c0-3.078125-1.761719-5.882812-4.535156-7.214844-2.773438-1.332031-6.0625-.957031-8.464844.964844l-33.546875 26.84375-62.578125-83.4375 31.515625-27.3125 47.203125 62.953125c2.648438 3.539063 7.664062 4.257813 11.203125 1.609375s4.257813-7.664062 1.609375-11.203125l-47.890625-63.859375 50.421875-43.703125c11.636719-10.085937 26.527344-15.640625 41.921875-15.640625zm53.140625 152c-.320312 0-.578125.148438-.890625.1875-.550781.0625-1.082031.136719-1.609375.3125s-.996094.421875-1.46875.703125c-.273438.160156-.570312.214844-.828125.40625l-32 24c-3.535156 2.648437-4.257813 7.667969-1.609375 11.203125 1.566406 2.097656 3.988281 3.203125 6.421875 3.203125 1.664063 0 3.339844-.53125 4.78125-1.609375l19.203125-14.40625v88h-16c-4.414062 0-8 3.585938-8 8s3.585938 8 8 8h48c4.414062 0 8-3.585938 8-8s-3.585938-8-8-8h-16v-104c0-.320312-.148438-.59375-.1875-.90625-.0625-.542969-.136719-1.066406-.3125-1.59375s-.421875-.996094-.703125-1.46875c-.160156-.273438-.214844-.570312-.40625-.828125-.113281-.152344-.292969-.230469-.421875-.375-.359375-.414063-.761719-.742187-1.203125-1.078125-.40625-.3125-.792969-.605469-1.234375-.828125-.433594-.214844-.886719-.332031-1.359375-.46875-.542969-.160156-1.082031-.289063-1.640625-.328125-.183594-.023438-.339844-.125-.53125-.125zm64 0c-13.199219 0-24 10.800781-24 24v80c0 13.199219 10.800781 24 24 24h32c13.199219 0 24-10.800781 24-24v-80c0-13.199219-10.800781-24-24-24zm0 16h32c4.398438 0 8 3.601562 8 8v80c0 4.398438-3.601562 8-8 8h-32c-4.398438 0-8-3.601562-8-8v-80c0-4.398438 3.601562-8 8-8zm-120 176c-4.414062 0-8 3.585938-8 8v16c0 4.414062 3.585938 8 8 8s8-3.585938 8-8v-16c0-4.414062-3.585938-8-8-8zm40 0c-4.414062 0-8 3.585938-8 8v16c0 4.414062 3.585938 8 8 8s8-3.585938 8-8v-16c0-4.414062-3.585938-8-8-8zm40 0c-4.414062 0-8 3.585938-8 8v16c0 4.414062 3.585938 8 8 8s8-3.585938 8-8v-16c0-4.414062-3.585938-8-8-8zm40 0c-4.414062 0-8 3.585938-8 8v16c0 4.414062 3.585938 8 8 8s8-3.585938 8-8v-16c0-4.414062-3.585938-8-8-8zm40 0c-4.414062 0-8 3.585938-8 8v16c0 4.414062 3.585938 8 8 8s8-3.585938 8-8v-16c0-4.414062-3.585938-8-8-8zm40 0c-4.414062 0-8 3.585938-8 8v16c0 4.414062 3.585938 8 8 8s8-3.585938 8-8v-16c0-4.414062-3.585938-8-8-8zm0 0" fill="#003e6b"/></svg>

<?xml version="1.0" encoding="UTF-8"?>
<svg xmlns="http://www.w3.org/2000/svg" xmlns:xlink="http://www.w3.org/1999/xlink" width="512pt" height="512pt" viewBox="0 0 512 512" version="1.1">
<g id="surface4495159">
<path style=" stroke:none;fill-rule:nonzero;fill:rgb(0%,24.313726%,41.960785%);fill-opacity:1;" d="M 199.953125 47.921875 C 199.585938 47.921875 199.222656 47.949219 198.859375 48 L 162.859375 48 C 143.617188 48 125.011719 54.941406 110.46875 67.546875 L 10.765625 153.953125 C 7.589844 156.699219 7.078125 161.433594 9.59375 164.796875 L 81.59375 260.796875 C 82.890625 262.53125 84.839844 263.667969 86.988281 263.941406 C 89.140625 264.214844 91.308594 263.605469 93 262.25 L 120 240.65625 L 120 464 C 120 468.417969 123.582031 472 128 472 L 392 472 C 396.417969 472 400 468.417969 400 464 L 400 240.65625 L 427 262.25 C 428.691406 263.605469 430.859375 264.214844 433.011719 263.941406 C 435.160156 263.667969 437.109375 262.53125 438.40625 260.796875 L 510.40625 164.796875 C 512.921875 161.433594 512.410156 156.699219 509.234375 153.953125 L 409.53125 67.546875 C 394.988281 54.941406 376.382812 48 357.140625 48 L 320.421875 48 C 319.746094 47.964844 319.070312 48.019531 318.40625 48.15625 C 318.390625 48.160156 318.375 48.167969 318.359375 48.171875 C 318.132812 48.21875 317.910156 48.277344 317.6875 48.34375 C 317.65625 48.355469 317.625 48.363281 317.59375 48.375 C 316.855469 48.605469 316.15625 48.941406 315.515625 49.375 C 315.488281 49.394531 315.464844 49.417969 315.4375 49.4375 C 315.253906 49.558594 315.078125 49.691406 314.90625 49.828125 C 305.710938 57.421875 284.316406 64 260 64 C 235.683594 64 214.289062 57.421875 205.09375 49.828125 C 203.65625 48.605469 201.835938 47.933594 199.953125 47.921875 Z M 162.859375 64 L 195.375 64 L 217.078125 101.59375 C 218.445312 104.191406 221.121094 105.832031 224.054688 105.867188 C 226.988281 105.90625 229.707031 104.335938 231.140625 101.773438 C 232.574219 99.214844 232.488281 96.074219 230.921875 93.59375 L 220 74.671875 C 231.761719 78.175781 245.386719 80 260 80 C 274.59375 80 288.199219 78.179688 299.953125 74.6875 L 259.921875 143.859375 L 246.921875 121.328125 C 245.578125 118.699219 242.890625 117.023438 239.9375 116.972656 C 236.980469 116.921875 234.238281 118.5 232.804688 121.085938 C 231.371094 123.667969 231.472656 126.832031 233.078125 129.3125 L 252.984375 163.84375 C 254.414062 166.320312 257.054688 167.84375 259.914062 167.84375 C 262.773438 167.84375 265.414062 166.320312 266.84375 163.84375 L 324.609375 64 L 357.140625 64 C 372.535156 64 387.425781 69.554688 399.0625 79.640625 L 449.484375 123.34375 L 401.59375 187.203125 C 398.945312 190.742188 399.664062 195.757812 403.203125 198.40625 C 406.742188 201.054688 411.757812 200.335938 414.40625 196.796875 L 461.609375 133.84375 L 493.125 161.15625 L 430.546875 244.59375 L 397 217.75 C 394.597656 215.828125 391.308594 215.453125 388.535156 216.785156 C 385.761719 218.117188 384 220.921875 384 224 L 384 456 L 136 456 L 136 224 C 136 220.921875 134.238281 218.117188 131.464844 216.785156 C 128.691406 215.453125 125.402344 215.828125 123 217.75 L 89.453125 244.59375 L 26.875 161.15625 L 58.390625 133.84375 L 105.59375 196.796875 C 108.242188 200.335938 113.257812 201.054688 116.796875 198.40625 C 120.335938 195.757812 121.054688 190.742188 118.40625 187.203125 L 70.515625 123.34375 L 120.9375 79.640625 C 132.574219 69.554688 147.464844 64 162.859375 64 Z M 216 216 C 215.679688 216 215.421875 216.148438 215.109375 216.1875 C 214.558594 216.25 214.027344 216.324219 213.5 216.5 C 212.972656 216.675781 212.503906 216.921875 212.03125 217.203125 C 211.757812 217.363281 211.460938 217.417969 211.203125 217.609375 L 179.203125 241.609375 C 175.667969 244.257812 174.945312 249.277344 177.59375 252.8125 C 179.160156 254.910156 181.582031 256.015625 184.015625 256.015625 C 185.679688 256.015625 187.355469 255.484375 188.796875 254.40625 L 208 240 L 208 328 L 192 328 C 187.585938 328 184 331.585938 184 336 C 184 340.414062 187.585938 344 192 344 L 240 344 C 244.414062 344 248 340.414062 248 336 C 248 331.585938 244.414062 328 240 328 L 224 328 L 224 224 C 224 223.679688 223.851562 223.40625 223.8125 223.09375 C 223.75 222.550781 223.675781 222.027344 223.5 221.5 C 223.324219 220.972656 223.078125 220.503906 222.796875 220.03125 C 222.636719 219.757812 222.582031 219.460938 222.390625 219.203125 C 222.277344 219.050781 222.097656 218.972656 221.96875 218.828125 C 221.609375 218.414062 221.207031 218.085938 220.765625 217.75 C 220.359375 217.4375 219.972656 217.144531 219.53125 216.921875 C 219.097656 216.707031 218.644531 216.589844 218.171875 216.453125 C 217.628906 216.292969 217.089844 216.164062 216.53125 216.125 C 216.347656 216.101562 216.191406 216 216 216 Z M 280 216 C 266.800781 216 256 226.800781 256 240 L 256 320 C 256 333.199219 266.800781 344 280 344 L 312 344 C 325.199219 344 336 333.199219 336 320 L 336 240 C 336 226.800781 325.199219 216 312 216 Z M 280 232 L 312 232 C 316.398438 232 320 235.601562 320 240 L 320 320 C 320 324.398438 316.398438 328 312 328 L 280 328 C 275.601562 328 272 324.398438 272 320 L 272 240 C 272 235.601562 275.601562 232 280 232 Z M 160 408 C 155.585938 408 152 411.585938 152 416 L 152 432 C 152 436.414062 155.585938 440 160 440 C 164.414062 440 168 436.414062 168 432 L 168 416 C 168 411.585938 164.414062 408 160 408 Z M 200 408 C 195.585938 408 192 411.585938 192 416 L 192 432 C 192 436.414062 195.585938 440 200 440 C 204.414062 440 208 436.414062 208 432 L 208 416 C 208 411.585938 204.414062 408 200 408 Z M 240 408 C 235.585938 408 232 411.585938 232 416 L 232 432 C 232 436.414062 235.585938 440 240 440 C 244.414062 440 248 436.414062 248 432 L 248 416 C 248 411.585938 244.414062 408 240 408 Z M 280 408 C 275.585938 408 272 411.585938 272 416 L 272 432 C 272 436.414062 275.585938 440 280 440 C 284.414062 440 288 436.414062 288 432 L 288 416 C 288 411.585938 284.414062 408 280 408 Z M 320 408 C 315.585938 408 312 411.585938 312 416 L 312 432 C 312 436.414062 315.585938 440 320 440 C 324.414062 440 328 436.414062 328 432 L 328 416 C 328 411.585938 324.414062 408 320 408 Z M 360 408 C 355.585938 408 352 411.585938 352 416 L 352 432 C 352 436.414062 355.585938 440 360 440 C 364.414062 440 368 436.414062 368 432 L 368 416 C 368 411.585938 364.414062 408 360 408 Z M 360 408 "/>
</g>
</svg>
